source/img/table-hit-ribbon.svg

<svg viewBox="0 0 74 74" fill="none" xmlns="http://www.w3.org/2000/svg">
<path d="M74 0L37 37L0 74V41L41 0H74Z" fill="#D22856"/>
<path d="M27.9192 37.3147L26.9863 38.2476L21.9785 37.0392L23.1531 42.0808L22.2831 42.9509L20.9393 36.9087L15.3757 35.7244L16.2844 34.8157L20.8378 35.8598L19.8082 31.2919L20.6831 30.417L21.8384 35.9516L27.9192 37.3147ZM21.8722 29.2279L22.6408 28.4593L26.5706 32.3892C27.2956 33.1142 27.9289 33.7925 28.4702 34.4242L28.5089 34.3855L26.5754 24.5247L27.4745 23.6256L34.5414 30.6925L33.768 31.4659L29.8769 27.5748C29.2291 26.927 28.5766 26.2197 27.9192 25.4527L27.8757 25.4962L29.8382 35.3957L28.9391 36.2948L21.8722 29.2279ZM38.6549 26.579L37.8332 27.4007L31.4962 21.0637L29.2581 23.3017L28.5283 22.5718L33.826 17.2741L34.5559 18.004L32.3179 20.242L38.6549 26.579Z" fill="white"/>
</svg>

<svg viewBox="0 0 74 74" fill="none" xmlns="http://www.w3.org/2000/svg"><path d="M74 0L37 37 0 74V41L41 0h33z" fill="#D22856"/><path d="M27.92 37.31l-.93.94-5.01-1.21 1.17 5.04-.87.87-1.34-6.04-5.56-1.19.9-.9 4.56 1.04-1.03-4.57.87-.87 1.16 5.53 6.08 1.36zm-6.05-8.08l.77-.77 3.93 3.93c.73.72 1.36 1.4 1.9 2.03l.04-.03-1.93-9.87.9-.9 7.06 7.07-.77.78-3.9-3.9c-.64-.64-1.3-1.35-1.95-2.12l-.04.05 1.96 9.9-.9.9-7.07-7.07zm16.78-2.65l-.82.82-6.33-6.34-2.24 2.24-.73-.73 5.3-5.3.73.73-2.24 2.24 6.33 6.34z" fill="#fff"/></svg>
